!!!!SEGMENT: pl-wnifc--13846--033_anonim--piesni-polskie-i-ruskie-ludu-galicyjskiego-33-nuz-zywo-whopki-dziurskie-parobki.krn
!!!kernsource:
!!!cenid: 18xx:3255
!!!COM: Anonim
!!!COM-rismid: pe30004985
!!!CDT:
!!!CNT:
!!!GTL: Pieśni polskie i ruskie ludu galicyjskiego
!!!OTL: 33. Nuż żywo whopki dziurskie parobki
!!!PDT: 1833
!!!AGN:
!!!SMS-siglum: PL-Wnifc
!!!SMS-shelfmark: 13846
!!!SMS-shelfwork: 033 G
!!!SMS-variant:
!!!SMS-altvar:
!!!NIFC-rismid: 1001036813
!!!URL-scan: http://repozytorium.nifc.pl/skany/pl-wnifc-nut--13846
!!!ONB-nifc:
!!!OMD: Mazur.
!!!key: G
**kern	**kern	**dynam	**kern	**text
*part2	*part2	*part2	*part1	*part1
*staff3	*staff2	*	*staff1	*staff1
*I"Fortepian	*I"Fortepian	*	*I"Głos	*
*Ipiano	*Ipiano	*	*Ivox	*
*ICklav	*ICklav	*	*ICvox	*
*IGacmp	*IGacmp	*	*IGsolo	*
*clefF4	*clefG2	*	*clefG2	*
*k[f#]	*k[f#]	*	*k[f#]	*
*G:	*G:	*	*G:	*
*M3/8	*M3/8	*	*M3/8	*
*>[A,A,B]	*>[A,A,B]	*	*>[A,A,B]	*
=1	=1	=1	=1	=1
*>A	*>A	*	*>A	*
*	*	*^	*	*
!	!	!	!	!LO:TX:a:t=D.b.Б.6.	!
8GG\ 8G\	8g\` 8b\	.	.	8b\	Nuż
!	!	!LO:DY:rj:t=sf.	!LO:DY:b=2:rj	!LO:TX:a:t=Db.5.4. tak się śpiewa jak D.b.Б.3.	!
8.G\L 8.B\ 8.d\	8b\`L 8dd\	sf	sf	8.dd\	ży-
.	8a#X\`J 8cc#X\	.	.	.	.
16A#X\Jk 16c#X\	.	.	.	16cc#X\	-wo
*	*	*v	*v	*	*
=2	=2	=2	=2	=2
*	*	*^	*	*
8G\ 8A#X\ 8c#X\ 8e\	8g\` 8a#X\ 8cc#X\ 8ee\	.	.	8ee\	whop-
!	!	!LO:DY:t=sf.:rj	!LO:DY:b=2:rj:t=sf.	!	!
4G\ 4B\ 4d\	4g/ 4b/ 4dd/	sf	sf	4dd\	-ki
=3	=3	=3	=3	=3	=3
8GG/ 8G/	8g/ 8b/	.	.	8dd\	dziur-
!	!	!LO:DY:t=sf.:rj	!LO:DY:b=2:rj:t=sf.	!	!
8.G\L 8.B\ 8.d\	8.b\L 8.dd\	sf	sf	8.dd\	-skie
16G\Jk 16A#X\ 16c#X\	16a#X/Jk 16cc#X/	.	.	16cc#X\	pa-
!!LO:LB:g=original
=4	=4	=4	=4	=4	=4
8G\ 8A#X\ 8c#X\ 8e\	8g\ 8a#X\ 8cc#X\ 8ee\	.	.	8ee\	-rob-
!	!	!LO:DY:t=sf.:rj	!LO:DY:b=2:rj:t=sf.	!	!
4G\ 4B\ 4d\	4g/ 4b/ 4dd/	sf	sf	4dd\	-ki
*	*	*v	*v	*	*
=5	=5	=5	=5	=5
8DD/ 8D/	8f#/ 8a/	.	8a/	zdziew-
8D\L 8F#\ 8A\	8.d\L 8.f#\ 8.a\ 8.ccn\	.	8.ccn\	-ka-
8D\J 8F#\ 8A\	.	.	.	.
.	16a\Jk	.	16a/	-mi
=6	=6	=6	=6	=6
8GG/	8g/ 8b/	.	8b/	w_ko-
!	!	!LO:DY:b=2:t=sf.	!	!
(8B\L 8d\	4b\ 4dd\	sf	4dd\	-ło
8G\J) 8B\	.	.	.	.
!!LO:PB:g=original
=7	=7	=7	=7	=7
8DD/ 8D/	8f#/ 8a/	.	8a/	tancz-
8D\L 8F#\ 8A\	8.d/L 8.f#/ 8.a/ 8.cc/	.	8.cc\	-cie
8D\J 8F#\ 8A\	.	.	.	.
.	16f#/Jk 16a/	.	16a/	we-
=8	=8	=8	=8	=8
8GGG/ 8GG/	8g/ 8b/	.	8b\	-so-
4G\ 4B\	4d/ 4g/	.	4g/	-ło
=9:|!	=9:|!	=9:|!	=9:|!	=9:|!
*>B	*>B	*	*>B	*
8CC/ 8C/	8a\ 8cc\ 8ee\	.	8ee\	gdy
!	!	!LO:DY:t=sf.:rj	!	!
8C\L 8E\ 8G\ 8c\	8.g\L 8.cc\ 8.ee\ 8.gg\	sf	8.gg\	oj-
8C\J 8E\ 8G\ 8c\	.	.	.	.
.	16cc\Jk 16ee\	.	16ee\	-cow
=10	=10	=10	=10	=10
8GG/	8b\ 8dd\	.	8dd\	cno-
8G\L 8B\	4g/ 4b/	.	4b\	-ta
8G\J 8B\ 8d\	.	.	.	.
!!LO:LB:g=original
=11	=11	=11	=11	=11
8DD/	8a\ 8cc\	.	8cc\	wla-
8D\L 8A\ 8d\	8.f#/L 8.a/	.	8.a/	-da
8D\J 8A\ 8d\	.	.	.	.
.	16a/Jk 16cc/	.	16cc\	ser-
=12	=12	=12	=12	=12
8GG/	8g\ 8b\	.	8b\	-ca-
8D\L 8G\ 8B\	4b\ 4dd\	.	4dd\	-mi,
8D\J 8G\ 8B\	.	.	.	.
=13	=13	=13	=13	=13
8C/	8g\ 8cc\ 8ee\	.	8ee\	ni-
!	!	!LO:DY:t=sf.:rj	!	!
8C\L 8E\ 8G\ 8c\	8.g\L 8.cc\ 8.ee\ 8.gg\	sf	8.gg\	-knie
8C\J 8E\ 8G\ 8c\	.	.	.	.
.	16cc\Jk 16ee\	.	16ee\	zgry-
=14	=14	=14	=14	=14
8GG/	8b\ 8dd\	.	8dd\	-zo-
8G\L 8B\	4g\ 4b\	.	4b\	-ta,
8G\J 8B\ 8d\	.	.	.	.
!!LO:LB:g=original
=15	=15	=15	=15	=15
8D\	8a\ 8cc\	.	8cc\	we-
8D\L 8A\ 8c\	8.f#\L 8.a\	.	8.a/	-so-
8D\J 8A\ 8c\	.	.	.	.
.	16d\Jk 16f#\	.	16f#/	-łość
=16	=16	=16	=16	=16
.	(<8qa/	.	(<8qa/	.
8GG/	8g/L)	.	8g/)	zna-
8G\ 8B\	8g/J	.	8g/	-mi
8r	8r	.	8r	.
!!LO:LB:g=original
==	==	==	==	==
*-	*-	*-	*-	*-
!!!system-decoration: s1,{(s2,s3)}
!!!RDF**kern: < = below
!!!RDF**kern: > = above
!!!AIN: 1 piano 1 vox
!!!ENC: Marta Chmielewska
!!!END: 2021-11-10
